X:1
T:Title
%%score 1 2 3 4
L:1/8
M:3/2
K:C
V:1 treble nm="Part_1"
V:2 treble nm="Part_2"
V:3 treble-8 nm="Part_3"
V:4 treble-8 nm="Part_4"
V:1
 c8 c4 | c4 A6 B2 | d4 c2 B4 A2 | (3:2:2c4 _B2 z4/3 (3:2:4G2 B2 A4 G2 | F4 z4 A4 | c8 A4 | %6
 z4 F4 A4 | D8 F4 | E4 D8 | C4 z4 z4 | F4 F4 F4 | G8 C4 | z2 G4 F4 E2 | F4 z2 c2 _B2 A2 | %14
 c6 G4 G2 | F4 z2 F2 A2 B2 | c4 !fermata!B4 z4 | c12- | c8 A2 B2 | d2 c4 _B2 c2 A2 | G4 z2 _B4 c2 | %21
 A2 _B4 c2 B2 A2 | c6 A2 G4 | F4 z4 z4 | A6 G2 A2 _B2 | c6 _B4 A2 | G4 z2 c4 G2 | z2 c4 A2 G2 A2 | %28
 B4 z4 z4 | G8 A4 | E8 F4 | E4 E2 C4 D2 | E4 z4 A4 | G6 c2 B2 A2 | c4 c2 A4 G2 | F4 z4 c4 | %36
 c2 c2 c2 c2 B4 | A4 z4 z4 | G8 F4 | E4 G2 F2 E2 D2 | C4 z4 F4 | E4 z4 A4 | G4 z4 c4 | %43
 B6 d2 c2 B2 | d6 B4 A2 | G8 F4 | E8 D4 | C8 z4 | F8 G4 | A4 A2 A4 A2 | D4 D2 G2 G2 G2 | %51
 D2 D4 F2 E2 D2 | F4 z4 c4 | A4 z4 A4 | E6 G4 F2- | F2 G4 c4 A2- | A2 d4 c4 _B2- | B2 A4 E4 G2 | %58
 z2 c2 _B2 A4 G2 | _B2 A2 F2 F4 E2 | F4 z4 A4 | d4 c2 c4 _B2 | A4 G2 F2 G4 | F4 z4 A2 _B2 | %64
 c2 c2 c2 c2 B4 | c4 A4 z4 | E4 G4 C2 E2 | F4 D2 G4 A2 | A2 E2 G2 F2 E2 D2 | F4 z4 z4 | %70
 A4 A2 A4 A2 | E4 E4 z4 | A4 G4 z4 | c4 B2 B4 A2 | A4 G2 G4 F2 | E4 C2 C2 D2 D2 | E3 F G2 A3 G F2 | %77
 E4 z4 D4 | C8 E4 | F2 F2 E4 D4 | C8 z4 | F4 A4 z4 | c4 c4 z4 | A4 E6 A2- | A2 G4 c4 c2 | %85
 c4 _B2 A4 G2 | F4 z2 c2 B2 A2 | c4 z2 c2 c2 c2 | B4 z2 B2 G2 A2 | E4 z2 G2 G2 G2 | C4 D2 E4 F2 | %91
 G2 A2 G2 F4 E2 | F4 z4 z4 | c4 c2 d4 d2 | c4 c2 _B4 G2 | _B2 A4 G2 F2 G2 | A2 G4 A2 _B4 | %97
 c2 A4 E2 G4 | A2 F4 E2 D2 F2- | F2 E4 D2 C4 | z2 c4 B2 c2 A2 | B12 | c12 |] %103
V:2
 c8 c4 | c4 A6 G2 | F4 E4 D4 | C6 F2 E2 D2 | F12 | z4 z4 A4 | c8 A4 | z4 F4 A4 | G6 c2 B2 A2 | %9
 c4 z4 z4 | A4 A4 A4 | _B8 A4 | _B4 A4 G4 | F6 E2 F2 D2 | C4 D4 E4 | F8 F4 | E4 !fermata!D4 z4 | %17
 F12 | F2 G2 _B2 A4 G2 | F4 D4 A4 | c2 _B4 A2 G4 | F6 G2 F2 E2 | G4 z4 z4 | A6 G2 A2 _B2 | %24
 c6 c4 _B2 | A4 z4 z4 | c4 G4 z2 c2- | c2 A4 E4 E2 | D8 z4 | d8 c4 | B8 A4 | G4 G2 G4 F2 | %32
 E4 z4 F4 | E6 E4 D2 | C4 D4 E4 | F4 z4 F4 | F2 A2 A2 F2 G4 | A4 z4 z4 | B8 d4 | e4 B2 d2 c2 B2 | %40
 c8 z4 | B4 A4 z4 | E4 G4 z4 | G4 F4 E4 | D4 E4 F4 | G8 A4 | G6 c2 B2 A2 | c4 z4 z4 | A8 A4 | %49
 F4 F2 c4 c2 | B2 G4 B4 B2 | d2 d2 B2 G2 B4 | A2 z2 c4 A4 | z4 A4 F4 | z4 G4 B4 | c4 B2 A4 F2 | %56
 c2 B2 G4 z2 F2- | F2 E4 D2 C2 z2 | A4 A2 c4 c2 | d2 c2 A2 A4 B2 | c8 z4 | A8 d4 | c6 A2 c2 _B2- | %63
 B2 G2 _B2 A4 F2 | A2 G4 F2 E4 | F4 z4 A4 | G4 z4 A4 | B2 d4 c2 B4 | c4 z4 c4 | A4 A2 A2 G2 F2 | %70
 E4 E4 z4 | A4 A2 A4 A2 | E4 E6 D2 | C2 C2 C2 C2 F4 | F2 E4 E2 D4 | C2 z2 G2 G2 F2 F2 | E4 C4 D4 | %77
 E4 z4 B4 | c8 B4 | A2 A2 G2 c2 B2 A2 | c4 z4 c4 | c4 z4 c4 | A4 z4 A4 | E6 A4 E2- | %84
 E2 E2 E2 E2 C4 | z2 F2 A4 F2 G2 | A4 G4 z2 F2 | G2 A2 E4 c2 d2 | d2 B4 z2 G4 | G2 G2 C4 z2 c2 | %90
 c2 c2 B2 A2 G2 F2 | E4 z2 c2 B2 A2 | d2 c4 A2 B2 c2 | A4 A4 A4 | z4 G4 C4 | F4 D4 A2 _B2 | %96
 c4 _B2 A4 F2 | E8 D4 | C4 z4 d4 | c4 _B2 A4 G2 | A2 F2 D2 E2 F4 | E12 | F12 |] %103
V:3
[K:F] z12 | z12 | z12 | z12 | z12 | z12 | z12 | z12 | z12 | z12 | z12 | z12 | z12 | z12 | z12 | %15
 z12 | z12 | F12- | F12 | f12 | _e12 | d12 | c4 d4 e4 | f12 | F12 | F4 G4 A4 | c12- | c12 | G12 | %29
 z12 | z12 | z12 | z12 | z12 | z12 | z12 | z12 | z12 | z12 | z12 | z12 | z12 | z12 | z12 | z12 | %45
 z12 | z12 | z12 | F12- | F12 | G12- | G12 | F12- | F12 | c8 d4 | c8 f4 | e8 d4 | A8 c4 | F8 E4 | %59
 F4 A4 G4 | F12- | F12 | f8 _e4 | d8 d4 | c4 A4 G4 | F12 | c12 | d4 f2 e4 d2 | c4 B2 A4 G2 | %69
 F8 G4 | A12- | A12 | c12 | e8 d4 | c8 B4 | c4 z4 z4 | z12 | z12 | z12 | z12 | z12 | F12- | F12 | %83
 A12 | c12 | A12 | f4 e4 d4 | c12 | G12 | c12- | c12 | c4 A4 G4 | F12 | f12 | e12 | d12 | c8 d4 | %97
 c8 B4 | A8 B4 | A8 c4 | F4 G4 A4 | G12 | F12 |] %103
V:4
[K:F] z12 | z12 | z12 | z12 | z12 | z12 | z12 | z12 | z12 | z12 | z12 | z12 | z12 | z12 | z12 | %15
 z12 | z12 | c12- | c12 | F12 | G12 | D8 z2 d2 | e4 f4 c4 | F12 | c12 | f4 e2 d4 c2 | e12- | %27
 e8 c4 | d12 | z12 | z12 | z12 | z12 | z12 | z12 | z12 | z12 | z12 | z12 | z12 | z12 | z12 | z12 | %43
 z12 | z12 | z12 | z12 | z12 | c12- | c12 | z2 G4 d4 d2 | G2 d8 d2 | A2 c8 c2 | c12 | C8 G2 z2 | %55
 C8 D4 | C8 D4 | z2 c4 d2 e4 | d2 c4 A2 G4 | z2 A4 c4 =B2 | c12 | z12 | d8 z4 | D12 | z12 | c12 | %66
 z4 e8 | d8 z4 | e4 z2 c4 B2 | c2 f4 d4 e2 | c12 | z4 z4 e4 | A4 z4 A4 | E8 G4 | C8 G4 | C4 C4 z4 | %76
 z12 | z12 | z12 | z12 | z12 | c12 | f12 | c12 | C12 | z2 c8 c2 | A4 c4 z4 | e12 | d12 | z4 e8 | %90
 e8 e4 | e2 d2 c4 =B4 | c6 f6 | F12 | c4 z4 e4 | z4 f8 | e8 f4 | g2 e4 c2 d4 | e8 d4 | c8 F4 | %100
 z2 f4 d2 c4 | =B12 | c12 |] %103

